X:184
T:Nyth y Gwcw - The Cuckoo's Nest
M:2/4
L:1/16
Q:90
C:Trad. arr. J.T.
R:Processional
N:Compressed arrangement
K:D
F2 | GFGF E2E2 | B2B2 B2A2 | GFGF E2Bc | d2d2 d2F2 | GFGF
E2E2 | B2B2 B2A2 | GFGF EFGA |1 B2B2 E2 :||2 B2B2 E4 ||
EFGF E2E2 | dcBA B2B2 | EFGA B2B2 | A2E
2 E2F2 | GFGF E2E2 | dcBA B2A2 | GFGF
EFGA |1 B2B2 E4 :||2 B2B2 E2 ||
